assets/Elevator/Flat/elevator_flat.svg

<svg width="32" height="32" viewBox="0 0 32 32" fill="none" xmlns="http://www.w3.org/2000/svg">
<path d="M2 6C2 3.79086 3.79086 2 6 2H26C28.2091 2 30 3.79086 30 6V26C30 28.2091 28.2091 30 26 30H6C3.79086 30 2 28.2091 2 26V6Z" fill="#00A6ED"/>
<path d="M12.933 4.25C12.7405 3.91667 12.2594 3.91667 12.067 4.25L10.7679 6.5C10.5755 6.83333 10.816 7.25 11.2009 7.25L13.799 7.25C14.1839 7.25 14.4245 6.83333 14.232 6.5L12.933 4.25Z" fill="white"/>
<path d="M19.933 7C19.7405 7.33333 19.2594 7.33333 19.067 7L17.7679 4.75C17.5755 4.41667 17.816 4 18.2009 4H20.799C21.1839 4 21.4245 4.41667 21.232 4.75L19.933 7Z" fill="white"/>
<path d="M12 11.5C12 12.3284 11.3284 13 10.5 13C9.67157 13 9 12.3284 9 11.5C9 10.6716 9.67157 10 10.5 10C11.3284 10 12 10.6716 12 11.5Z" fill="white"/>
<path d="M12.5825 13.7784C13.3652 13.7784 13.9996 14.4132 14 15.1963V18.4776C14 18.82 13.7367 19.1147 13.3943 19.131C13.0287 19.1481 12.7273 18.857 12.7273 18.4955V15.3685C12.7273 15.1931 12.5849 15.0511 12.4099 15.0511C12.2345 15.0511 12.0925 15.1935 12.0925 15.3685V23.3636C12.0925 23.7252 11.791 24.0163 11.4255 23.9992C11.0831 23.9833 10.8198 23.6886 10.8198 23.3457V18.8992C10.8198 18.7234 10.6774 18.581 10.5016 18.581C10.3258 18.581 10.1834 18.7234 10.1834 18.8992V23.3636C10.1834 23.7252 9.88193 24.0163 9.51642 23.9992C9.17398 23.9833 8.91068 23.6886 8.91068 23.3457V15.3701C8.91068 15.1939 8.7679 15.0511 8.5917 15.0511C8.41551 15.0511 8.27273 15.1939 8.27273 15.3701V18.4951C8.27273 18.8566 7.97125 19.1477 7.60574 19.1306C7.2633 19.1147 7 18.82 7 18.4772V15.1959C7 14.4132 7.63477 13.7784 8.4175 13.7784H12.5825Z" fill="white"/>
<path d="M16 10C15.4477 10 15 10.4477 15 11V24C15 24.5523 15.4477 25 16 25C16.5523 25 17 24.5523 17 24V11C17 10.4477 16.5523 10 16 10Z" fill="white"/>
<path d="M23 11.5C23 12.3284 22.3284 13 21.5 13C20.6716 13 20 12.3284 20 11.5C20 10.6716 20.6716 10 21.5 10C22.3284 10 23 10.6716 23 11.5Z" fill="white"/>
<path d="M19.7524 14.5529L19.0814 17.5423C19.0129 17.8475 18.7159 18.0176 18.418 17.9224C18.1201 17.8271 17.9341 17.5024 18.0026 17.1972L18.7458 13.8861L18.7628 13.8915C18.8985 13.5004 19.2703 13.2196 19.7077 13.2196H23.2922C23.7296 13.2196 24.1014 13.5004 24.2372 13.8916L24.2542 13.8861L24.9974 17.1972C25.0659 17.5024 24.8799 17.8271 24.582 17.9224C24.2841 18.0176 23.9871 17.8475 23.9186 17.5423L23.2476 14.5529H22.617L23.7339 19.2195V19.3863C23.7339 19.6624 23.51 19.8863 23.2339 19.8863H23.1754V23.3278C23.1754 23.6362 22.9254 23.8862 22.617 23.8862C22.3086 23.8862 22.0585 23.6362 22.0585 23.3278V19.8863H20.9415V23.3278C20.9415 23.6362 20.6915 23.8862 20.3831 23.8862C20.0747 23.8862 19.8246 23.6362 19.8246 23.3278V19.8863H19.7663C19.4901 19.8863 19.2663 19.6624 19.2663 19.3863V19.2196L20.3832 14.5529H19.7524Z" fill="white"/>
<path d="M5 10C5 8.89543 5.89543 8 7 8H25C26.1046 8 27 8.89543 27 10V25C27 26.1046 26.1046 27 25 27H7C5.89543 27 5 26.1046 5 25V10ZM7 9C6.44772 9 6 9.44772 6 10V25C6 25.5523 6.44772 26 7 26H25C25.5523 26 26 25.5523 26 25V10C26 9.44771 25.5523 9 25 9H7Z" fill="white"/>
</svg>

<svg xmlns="http://www.w3.org/2000/svg" width="32" height="32" fill="none"><path fill="#00A6ED" d="M2 6a4 4 0 0 1 4-4h20a4 4 0 0 1 4 4v20a4 4 0 0 1-4 4H6a4 4 0 0 1-4-4V6Z"/><path fill="#fff" d="M12.933 4.25a.5.5 0 0 0-.866 0l-1.3 2.25a.5.5 0 0 0 .434.75h2.598a.5.5 0 0 0 .433-.75l-1.299-2.25ZM19.933 7a.5.5 0 0 1-.866 0l-1.3-2.25a.5.5 0 0 1 .434-.75h2.598a.5.5 0 0 1 .433.75L19.933 7ZM12 11.5a1.5 1.5 0 1 1-3 0 1.5 1.5 0 0 1 3 0ZM12.582 13.778c.783 0 1.418.635 1.418 1.418v3.282a.648.648 0 0 1-.606.653.636.636 0 0 1-.667-.636v-3.127a.318.318 0 0 0-.635 0v7.996a.636.636 0 0 1-.667.635.648.648 0 0 1-.605-.653v-4.447a.318.318 0 1 0-.637 0v4.465a.636.636 0 0 1-.667.635.648.648 0 0 1-.605-.653V15.37a.319.319 0 1 0-.638 0v3.125a.636.636 0 0 1-.667.636.648.648 0 0 1-.606-.654v-3.281c0-.783.635-1.418 1.418-1.418h4.165ZM16 10a1 1 0 0 0-1 1v13a1 1 0 1 0 2 0V11a1 1 0 0 0-1-1ZM23 11.5a1.5 1.5 0 1 1-3 0 1.5 1.5 0 0 1 3 0ZM19.752 14.553l-.67 2.99a.509.509 0 0 1-.664.38.63.63 0 0 1-.415-.726l.743-3.31.017.005a1 1 0 0 1 .945-.672h3.584a1 1 0 0 1 .945.672l.017-.006.743 3.311a.63.63 0 0 1-.415.725.509.509 0 0 1-.663-.38l-.671-2.99h-.631l1.117 4.668v.166a.5.5 0 0 1-.5.5h-.059v3.442a.558.558 0 1 1-1.117 0v-3.442h-1.116v3.442a.558.558 0 1 1-1.117 0v-3.442h-.059a.5.5 0 0 1-.5-.5v-.166l1.117-4.667h-.63Z"/><path fill="#fff" d="M5 10a2 2 0 0 1 2-2h18a2 2 0 0 1 2 2v15a2 2 0 0 1-2 2H7a2 2 0 0 1-2-2V10Zm2-1a1 1 0 0 0-1 1v15a1 1 0 0 0 1 1h18a1 1 0 0 0 1-1V10a1 1 0 0 0-1-1H7Z"/></svg>
